X:93
T:Macleod of Macleod's Chorus Song
T:Luinneag Mhic Leoid
R:Slow Air
S:Simon Fraser Collection
N:No.65
O:Scottish
M:6/8
L:1/8
Q:3/8=70
K:D
(3d/4c/4B/4|A2D F2A|F2E F2 (3d/c/B/|A2D F2A|E2D D2 (3d/c/B/|
A2D F2A|F>(GF/E/) F2A|d>ef F2A|[C2E2][DF][D2F2]:|
|:A,|D>EF (G>FG)|AGF G>AB|(B>A)d A>G(F/G/)|AFD E2 (D/A,/)|
D>EF (G>FG)|AGF G>A z/B/|B>Ad A>G(F/G/)|AA,D (E2 D/)||

